X: 7206
T: Cis Ni Liathain
R: slide
M: 12/8
K: Adorian
M:6/8
|:g/f/|e2 A ABA|e2 f g2 f|e2 A ABA|G2 A Bcd|
e2 A ABA|e2 f g2 f|efe e2 d|1 B2 A A2:|2 B2 A A3||
|:e2 a a2 g|e2 f g2 f|e2 a a2 g|e2 d Bcd|
e2 a a2 g|e2 f g2 f|efe e2 d|1 B2 A A3:|2 B2 A A2||

